X:1
T:Musette in D
C:J. S. Bach (Anna Magdalena Notebook)
M:2/4
L:1/4
Q:1/4=110
K:D
F A | A A | B c | d2 | A d | e ^f | g2 | d e | f g | g a | b2 | g a | b c' | d'2 |]
